X: 324
T: reel de Sainte-Louise
O: trad Qu\'ebec
R: reel
Z: 2010 John Chambers <jc:trillian.mit.edu>
M: C|
L: 1/8
K: D
Ad | "D"f2f{a}f "A7"edeg | "D"fafd "(B/d#)"Adfd | "Em"eA2A Acec |1,3 "A"dcde "A7"fA :|2,4 "A7"dfec "D"d2 :|
|: ef | "G"gbge "E/g#"Aceg | "D/a"fafd Adfd | "A"eAAA Acec |1,3 "D"dcde f{a}f ef :|2,4 "A7"dfec "D"d2 :|

